icon/ir/locked-window.svg

<svg viewBox="0 0 24 24" stroke-width="1.5" fill="none" xmlns="http://www.w3.org/2000/svg" height="1em" width="1em">
  <path d="M14 21H4C2.89543 21 2 20.1046 2 19V5C2 3.89543 2.89543 3 4 3H20C21.1046 3 22 3.89543 22 5V13" stroke="currentColor" stroke-linecap="round"/>
  <path d="M2 7L22 7" stroke="currentColor" stroke-linecap="round" stroke-linejoin="round"/>
  <path d="M5 5.01L5.01 4.99889" stroke="currentColor" stroke-linecap="round" stroke-linejoin="round"/>
  <path d="M8 5.01L8.01 4.99889" stroke="currentColor" stroke-linecap="round" stroke-linejoin="round"/>
  <path d="M11 5.01L11.01 4.99889" stroke="currentColor" stroke-linecap="round" stroke-linejoin="round"/>
  <path d="M21.1667 18.5H21.4C21.7314 18.5 22 18.7686 22 19.1V21.4C22 21.7314 21.7314 22 21.4 22H17.6C17.2686 22 17 21.7314 17 21.4V19.1C17 18.7686 17.2686 18.5 17.6 18.5H17.8333M21.1667 18.5V16.75C21.1667 16.1667 20.8333 15 19.5 15C18.1667 15 17.8333 16.1667 17.8333 16.75V18.5M21.1667 18.5H17.8333" stroke="currentColor" stroke-linecap="round" stroke-linejoin="round"/>
</svg>

<svg width="24" height="24" stroke-width="1.5" fill="none" xmlns="http://www.w3.org/2000/svg"><path d="M14 21H4a2 2 0 0 1-2-2V5a2 2 0 0 1 2-2h16a2 2 0 0 1 2 2v8" stroke="currentColor" stroke-linecap="round"/><path d="M2 7h20M5 5.01l.01-.011M8 5.01l.01-.011M11 5.01l.01-.011M21.167 18.5h.233a.6.6 0 0 1 .6.6v2.3a.6.6 0 0 1-.6.6h-3.8a.6.6 0 0 1-.6-.6v-2.3a.6.6 0 0 1 .6-.6h.233m3.334 0v-1.75c0-.583-.334-1.75-1.667-1.75s-1.667 1.167-1.667 1.75v1.75m3.334 0h-3.334" stroke="currentColor" stroke-linecap="round" stroke-linejoin="round"/></svg>
